core/assets/icons/phone.outline.svg

<svg width="24" height="24" viewBox="0 0 24 24" xmlns="http://www.w3.org/2000/svg"><g id="phone=outline"><path id="Vector" fill-rule="evenodd" clip-rule="evenodd" d="M6.51294 9.99177L8.68197 8.44296C8.05093 7.11477 7.6273 5.69767 7.4258 4.24121H4.25781C4.24673 4.47681 4.24121 4.71371 4.24121 4.95194C4.24121 13.1289 10.8708 19.7584 19.0477 19.7584C19.2859 19.7584 19.5228 19.7529 19.7584 19.7418V16.5738C18.302 16.3723 16.8849 15.9487 15.5567 15.3177L14.0079 17.4867L12.4395 16.594C10.3398 15.3988 8.60087 13.6599 7.40566 11.5601L6.51294 9.99177ZM20.7598 14.6715C21.0317 14.6931 21.2855 14.8163 21.4706 15.0167C21.6557 15.217 21.7585 15.4798 21.7584 15.7526V20.5907C21.7585 20.8591 21.659 21.1181 21.4791 21.3174C21.2992 21.5167 21.0518 21.6421 20.7847 21.6695C20.2101 21.7292 19.6311 21.7584 19.0477 21.7584C9.76618 21.7584 2.24121 14.2335 2.24121 4.95194C2.24121 4.36859 2.27049 3.78958 2.33012 3.2149C2.35751 2.94784 2.48299 2.70043 2.68229 2.52056C2.88159 2.34069 3.14053 2.24115 3.40899 2.24121H8.24709C8.51986 2.24118 8.78262 2.34395 8.98298 2.52904C9.18334 2.71412 9.30658 2.96793 9.32813 3.23984C9.46499 4.98207 9.96903 6.67561 10.8071 8.20914C10.9345 8.44179 10.9721 8.71306 10.913 8.97161C10.8539 9.23017 10.702 9.45807 10.4862 9.61222L9.1438 10.5707C10.1612 12.3582 11.6415 13.8384 13.4289 14.8558L14.3874 13.5135C14.5416 13.2976 14.7695 13.1458 15.028 13.0866C15.2866 13.0275 15.5579 13.0652 15.7905 13.1925C17.324 14.0306 19.0176 14.5346 20.7598 14.6715Z"/></g></svg>

<svg xmlns="http://www.w3.org/2000/svg" width="24" height="24" fill="none"><path fill="#191C22" fill-rule="evenodd" d="m6.513 9.992 2.169-1.549a14.385 14.385 0 0 1-1.256-4.202H4.258c-.011.236-.017.473-.017.71 0 8.178 6.63 14.807 14.807 14.807.238 0 .475-.005.71-.016v-3.168a14.386 14.386 0 0 1-4.201-1.256l-1.55 2.169-1.567-.893a13.446 13.446 0 0 1-5.034-5.034l-.893-1.568Zm14.247 4.68a1.084 1.084 0 0 1 .998 1.08v4.839a1.084 1.084 0 0 1-.973 1.078c-.575.06-1.154.09-1.737.09-9.282 0-16.807-7.526-16.807-16.807 0-.583.03-1.162.09-1.737a1.084 1.084 0 0 1 1.078-.974h4.838a1.084 1.084 0 0 1 1.081.999c.137 1.742.641 3.436 1.48 4.97a1.084 1.084 0 0 1-.322 1.402l-1.342.959a11.445 11.445 0 0 0 4.285 4.285l.958-1.342a1.085 1.085 0 0 1 1.403-.321 12.385 12.385 0 0 0 4.97 1.479Z" clip-rule="evenodd"/></svg>
